X: 33
T: The BARLEY MOW
%R: hornpipe
B: Jean White "100 Popular Hornpipes, Reels, Jigs and Country Dances", Boston 1880 p.14
F: http://www.loc.gov/resource/sm1880.09124.0#seq-1
Z: 2014 John Chambers <jc:trillian.mit.edu>
M: C|
L: 1/8
K: Bb
% - - - - - - - - - - - - - - - - - - - - - - - - - - - - -
F2 |\
B>AB>d c>ec>A | (3BAB d>B G2F2 |\
{c}B>AB>d g>fd>B | {d}c>=Bc>d c2F2 |
{c}B>AB>d c>ec>A | (3BAB d>B G2F>E |\
D>FB>d c>ec>A | B2b2 B2 :|
|: f2 |\
{a}g>^fg>a b2b2 | (3BAB d>B G2F2 |\
B>AB>d g>fd>B | {d}c>=Bc>d c2f2 |
{a}g>^fg>a b2b2 | (3BAB d>B G2F>E |\
(3DFB (3dcB (3Agf (3edc | B2d2 B2 H:|
% - - - - - - - - - - - - - - - - - - - - - - - - - - - - -

%%sep 1 1 500
%%sep 1 1 500
